azure-patterns/svg-sharepoint-server.svg

<svg xmlns="http://www.w3.org/2000/svg" viewBox="0 0 48 40">
                                
                            
  <path d="M35.9467 3.39971H33.0467L2.84668 3.19971V26.5997H5.74668L6.54668 25.8997H22.6467V18.8997C22.6467 18.6997 22.7467 18.4997 22.9467 18.4997L35.9467 15.9997V3.39971Z" fill="#36C4EA"></path>
  <path d="M22.6468 28.7998H14.7468C15.8468 32.4998 14.7468 33.5998 9.94678 33.8998H22.6468V28.7998Z" fill="#7A7A7A"></path>
  <path d="M22.6469 28.7999V25.8999H6.54688L3.04688 28.7999H14.6469H22.6469Z" fill="#3E3E3E"></path>
  <path d="M27.8466 11.4995C27.7466 11.4995 27.7466 11.4995 27.6466 11.4995L20.8466 15.3995C20.8466 15.4995 20.7466 15.4995 20.7466 15.5995V23.3995C20.7466 23.4995 20.7466 23.4995 20.8466 23.5995H20.9466H21.0466L22.6466 22.6995V18.8995C22.6466 18.6995 22.7466 18.4995 22.9466 18.4995L27.9466 17.4995V11.5995L27.8466 11.4995Z" fill="#7CDBF1"></path>
  <path d="M27.8467 11.3999C27.7467 11.3999 27.7467 11.3999 27.6467 11.3999L22.8467 14.1999L27.6467 11.3999C27.7467 11.3999 27.7467 11.3999 27.8467 11.3999Z" fill="#7CDBF1"></path>
  <path d="M20.7471 15.4998C20.7471 15.3998 20.7471 15.3998 20.8471 15.2998C20.7471 15.2998 20.7471 15.3998 20.7471 15.4998Z" fill="#7CDBF1"></path>
  <path d="M6.94707 33.8999C6.84707 33.8999 6.84707 33.8999 6.74707 33.8999V36.2999H22.6471V33.8999H9.84707H6.94707Z" fill="#9FA0A1"></path>
  <path d="M3.04688 25.8999V3.3999H33.0469L36.5469 0.399902H2.14687C1.64687 0.399902 1.14688 0.599902 0.846875 0.899902C0.346875 1.3999 0.046875 1.8999 0.046875 2.5999V26.5999C0.046875 27.6999 1.04687 28.7999 2.14687 28.7999H3.04688L6.54688 25.7999H3.04688V25.8999Z" fill="#707070"></path>
  <path d="M19.847 1.9999C19.847 2.2999 19.547 2.5999 19.247 2.5999C18.947 2.5999 18.647 2.2999 18.647 1.9999C18.647 1.6999 18.947 1.3999 19.247 1.3999C19.647 1.4999 19.847 1.6999 19.847 1.9999Z" fill="#B7D332"></path>
  <path d="M34.9468 22H25.4468V35H34.9468V22Z" fill="white"></path>
  <path d="M45.6471 26.0001C45.4471 26.0001 45.3471 26.0001 45.1471 26.1001C44.5471 24.6001 43.3471 23.4001 41.9471 22.7001C41.9471 22.6001 41.9471 22.5001 41.9471 22.4001C41.9471 21.1001 40.9471 20.1001 39.6471 20.1001C39.0471 20.1001 38.6471 20.3001 38.2471 20.6001V22.2001V23.3001V24.3001C38.6471 24.6001 39.1471 24.8001 39.6471 24.8001C40.4471 24.8001 41.1471 24.4001 41.5471 23.8001C42.7471 24.4001 43.7471 25.4001 44.1471 26.7001C43.5471 27.1001 43.2471 27.7001 43.2471 28.5001C43.2471 29.2001 43.5471 29.9001 44.1471 30.3001C43.6471 31.6001 42.7471 32.6001 41.5471 33.3001C41.1471 32.7001 40.4471 32.3001 39.6471 32.3001C39.0471 32.3001 38.6471 32.5001 38.2471 32.8001V33.8001V34.9001V36.5001C38.6471 36.8001 39.1471 37.0001 39.6471 37.0001C40.9471 37.0001 41.9471 36.0001 41.9471 34.7001C41.9471 34.6001 41.9471 34.5001 41.9471 34.4001C43.3471 33.7001 44.5471 32.5001 45.1471 30.9001C45.3471 30.9001 45.4471 31.0001 45.6471 31.0001C46.9471 31.0001 47.9471 30.0001 47.9471 28.7001C48.0471 27.0001 46.9471 26.0001 45.6471 26.0001Z" fill="#1372B8"></path>
  <path d="M23.5469 19.2999V37.2999L37.0469 39.7999V16.8999L23.5469 19.2999ZM31.1469 32.7999C30.0469 33.5999 28.5469 33.2999 27.4469 32.7999C27.4469 32.1999 27.4469 31.3999 27.3469 30.7999C28.0469 31.3999 29.1469 32.1999 30.0469 31.3999C30.7469 30.2999 29.4469 29.5999 28.6469 28.9999C26.9469 27.9999 26.8469 25.1999 28.5469 24.0999C29.5469 23.4999 30.6469 23.6999 31.6469 23.8999C31.6469 24.4999 31.6469 25.1999 31.7469 25.7999C30.8469 25.5999 29.7469 24.9999 29.0469 25.8999C28.4469 27.0999 30.0469 27.5999 30.8469 28.1999C32.3469 29.1999 32.5469 31.6999 31.1469 32.7999Z" fill="#1372B8"></path>
  <path d="M38.4469 18.9999C38.6469 18.8999 38.8469 18.8999 39.0469 18.7999V2.5999C39.0469 1.4999 37.7469 0.399902 36.6469 0.399902L33.0469 3.3999H35.8469V15.9999L38.3469 15.4999V18.9999H38.4469Z" fill="#3E3E3E"></path>
  <path d="M19.9468 13.9997H19.8468L13.0468 9.99971C12.9468 9.99971 12.9468 9.89971 12.9468 9.79971C12.9468 9.69971 12.9468 9.69971 13.0468 9.59971L19.8468 5.69971C19.9468 5.69971 19.9468 5.69971 20.0468 5.69971L26.8468 9.59971C26.9468 9.59971 26.9468 9.69971 26.9468 9.79971C26.9468 9.89971 26.9468 9.89971 26.8468 9.99971L20.0468 13.9997C20.0468 13.9997 20.0468 13.9997 19.9468 13.9997Z" fill="white"></path>
  <path d="M19.1468 23.3999V15.4999C19.1468 15.3999 19.1468 15.3999 19.0468 15.2999L12.2468 11.3999C12.1468 11.3999 12.1468 11.3999 12.0468 11.3999C11.9468 11.3999 11.9468 11.4999 11.9468 11.5999V19.4999C11.9468 19.5999 11.9468 19.5999 12.0468 19.6999L18.8468 23.5999H18.9468H19.0468C19.1468 23.4999 19.1468 23.4999 19.1468 23.3999Z" fill="#BEEDF7"></path>
</svg>

<svg xmlns="http://www.w3.org/2000/svg" viewBox="0 0 48 40"><path d="M35.947 3.4h-2.9l-30.2-.2v23.4h2.9l.8-.7h16.1v-7c0-.2.1-.4.3-.4l13-2.5V3.4z" fill="#36C4EA"/><path d="M22.647 28.8h-7.9c1.1 3.7 0 4.8-4.8 5.1h12.7v-5.1z" fill="#7A7A7A"/><path d="M22.647 28.8v-2.9h-16.1l-3.5 2.9h19.6z" fill="#3E3E3E"/><path d="M27.847 11.5h-.2l-6.8 3.9c0 .1-.1.1-.1.2v7.8c0 .1 0 .1.1.2h.2l1.6-.9v-3.8c0-.2.1-.4.3-.4l5-1v-5.9l-.1-.1z" fill="#7CDBF1"/><path d="M27.847 11.4h-.2l-4.8 2.8 4.8-2.8h.2zM20.747 15.5c0-.1 0-.1.1-.2-.1 0-.1.1-.1.2z" fill="#7CDBF1"/><path d="M6.947 33.9h-.2v2.4h15.9v-2.4H6.947z" fill="#9FA0A1"/><path d="M3.047 25.9V3.4h30l3.5-3h-34.4c-.5 0-1 .2-1.3.5-.5.5-.8 1-.8 1.7v24c0 1.1 1 2.2 2.1 2.2h.9l3.5-3h-3.5v.1z" fill="#707070"/><path d="M19.847 2c0 .3-.3.6-.6.6s-.6-.3-.6-.6.3-.6.6-.6c.4.1.6.3.6.6z" fill="#B7D332"/><path d="M34.947 22h-9.5v13h9.5V22z" fill="#fff"/><path d="M45.647 26c-.2 0-.3 0-.5.1-.6-1.5-1.8-2.7-3.2-3.4v-.3c0-1.3-1-2.3-2.3-2.3-.6 0-1 .2-1.4.5v3.7c.4.3.9.5 1.4.5.8 0 1.5-.4 1.9-1 1.2.6 2.2 1.6 2.6 2.9-.6.4-.9 1-.9 1.8 0 .7.3 1.4.9 1.8-.5 1.3-1.4 2.3-2.6 3-.4-.6-1.1-1-1.9-1-.6 0-1 .2-1.4.5v3.7c.4.3.9.5 1.4.5 1.3 0 2.3-1 2.3-2.3v-.3c1.4-.7 2.6-1.9 3.2-3.5.2 0 .3.1.5.1 1.3 0 2.3-1 2.3-2.3.1-1.7-1-2.7-2.3-2.7zM23.547 19.3v18l13.5 2.5V16.9l-13.5 2.4zm7.6 13.5c-1.1.8-2.6.5-3.7 0 0-.6 0-1.4-.1-2 .7.6 1.8 1.4 2.7.6.7-1.1-.6-1.8-1.4-2.4-1.7-1-1.8-3.8-.1-4.9 1-.6 2.1-.4 3.1-.2 0 .6 0 1.3.1 1.9-.9-.2-2-.8-2.7.1-.6 1.2 1 1.7 1.8 2.3 1.5 1 1.7 3.5.3 4.6z" fill="#1372B8"/><path d="M38.447 19c.2-.1.4-.1.6-.2V2.6c0-1.1-1.3-2.2-2.4-2.2l-3.6 3h2.8V16l2.5-.5V19h.1z" fill="#3E3E3E"/><path d="M19.947 14h-.1l-6.8-4c-.1 0-.1-.1-.1-.2s0-.1.1-.2l6.8-3.9h.2l6.8 3.9c.1 0 .1.1.1.2s0 .1-.1.2l-6.8 4h-.1z" fill="#fff"/><path d="M19.147 23.4v-7.9c0-.1 0-.1-.1-.2l-6.8-3.9h-.2c-.1 0-.1.1-.1.2v7.9c0 .1 0 .1.1.2l6.8 3.9h.2c.1-.1.1-.1.1-.2z" fill="#BEEDF7"/></svg>
